X: 40
T:The Blackbird
M:2/4
L:1/8
Q:220
C:Traditional
K:D
dc | BABd | cABG | AGFG | AB (3cBA | dcde | dcAF | GAGF | D2 DE | FEFG |
 A2 fe | dcde | dcAF | GAGF | D2 Dc | D2 :| de | fede | f2 g2 | abag | f
gaf | g2 gf | g2 gf | gagf | dcde | fede | f2 g2 | abag | fgaf | gagf |
d2 dc | d2 (3efg | abag | fgaf | g2 ge | f2 ed | c2 AB | c2 d2 | fefg |
a4 | ABAG | FGAB | cBce | dcAF | GAGF | D2 Dc | D2 ||

